X:184
T:Mad Moll
M:9/4
L:1/8
N:The ‘f' note in measure two of the 2nd strain can be played sharp.
B:Thompson's Compleat Collection of 200 Favourite Country Dances, vol. 2 (London, 1765)
Z:Transcribed and edited by Flynn Titford-Mock, 2007
Z:abc's:AK/Fiddler's Companion
K:C
A2 | c3d e2 c2-A2 A2 c2-A2 A2 | c3de2 c2-A2 B4F2 | c3de2 c2-A2 A2 c2-A2 A2 | B3cd2 d3ed2 B6G2 ||
c3de2 g2-e2 e2 g2-e2 e2 | c3de2 g2-e2e2 f4d2 | c3de2 g2-e2 e2 g2-e2 e2 | B3cd2 d3ed2 B4G2 |]

